modules/hawcons-filled/icons/icon-45-two-fingers-double-tap.svg

<?xml version="1.0" encoding="UTF-8" standalone="no"?>
<svg width="32px" height="32px" viewBox="0 0 32 32" version="1.1" xmlns="http://www.w3.org/2000/svg" xmlns:xlink="http://www.w3.org/1999/xlink" xmlns:sketch="http://www.bohemiancoding.com/sketch/ns">
    <!-- Generator: Sketch 3.0.3 (7891) - http://www.bohemiancoding.com/sketch -->
    <title>icon 45 two fingers double tap</title>
    <desc>Created with Sketch.</desc>
    <defs></defs>
    <g id="Page-1" stroke="none" stroke-width="1" fill="none" fill-rule="evenodd" sketch:type="MSPage">
        <g id="icon-45-two-fingers-double-tap" sketch:type="MSArtboardGroup" fill="#929292">
            <path d="M10.5,13 C8.01471863,13 6,15.0124342 6,17.495728 L6,31 L15,31 L15,17.495728 C15,15.012806 12.9802243,13 10.5,13 L10.5,13 Z M10.5,15 C9.11928813,15 8,16.1285541 8,17.5097752 L8,21 L13,21 L13,17.5097752 C13,16.1236646 11.8903379,15 10.5,15 L10.5,15 Z M8,24 L8,25 L13,25 L13,24 L8,24 L8,24 Z M8,26 L8,27 L13,27 L13,26 L8,26 L8,26 Z M21.5,10 C19.0147186,10 17,12.0135683 17,14.5050269 L17,31 L26,31 L26,14.5050269 C26,12.0169692 23.9802243,10 21.5,10 L21.5,10 Z M21.5,12 C20.1192881,12 19,13.1285541 19,14.5097752 L19,18 L24,18 L24,14.5097752 C24,13.1236646 22.8903379,12 21.5,12 L21.5,12 Z M19,21 L19,22 L24,22 L24,21 L19,21 L19,21 Z M19,23 L19,24 L24,24 L24,23 L19,23 L19,23 Z M28,18.2441745 C28.6360558,17.1423419 29,15.8636729 29,14.5 C29,10.3578642 25.6421358,7 21.5,7 C18.5038456,7 15.9180334,8.75688301 14.7165644,11.2966481 C13.5150138,10.4783403 12.0633681,10 10.5,10 C6.35786417,10 3,13.3578642 3,17.5 C3,18.8636729 3.36394423,20.1423419 4,21.2441745 L4,17.4965783 C4,13.9100758 6.91014913,11 10.5,11 C12.3337566,11 13.9932596,11.762055 15.1764528,12.9872052 C15.8574659,10.1279734 18.4302193,8 21.5,8 C25.0825462,8 28,10.9086172 28,14.4965783 L28,18.2441745 L28,18.2441745 L28,18.2441745 Z M28,21.4282446 C29.8465394,19.6951562 31,17.2322807 31,14.5 C31,9.25329462 26.7467054,5 21.5,5 C18.4524484,5 15.740061,6.43500774 14.0016825,8.66617853 C12.9180998,8.23628787 11.7366439,8 10.5,8 C5.25329462,8 1,12.2532946 1,17.5 C1,20.2322807 2.15346057,22.6951562 4,24.4282446 L4,25.746764 C1.5637479,23.8239049 0,20.844569 0,17.5 C0,11.7010098 4.70100984,7 10.5,7 C11.6092095,7 12.6782477,7.17199412 13.6818998,7.4907678 C15.6042592,5.34800452 18.3947078,4 21.5,4 C27.2989902,4 32,8.70100984 32,14.5 C32,17.844569 30.4362521,20.8239049 28,22.746764 L28,21.4282446 L28,21.4282446 L28,21.4282446 Z" id="two-fingers-double-tap" sketch:type="MSShapeGroup"></path>
        </g>
    </g>
</svg>

<svg width="32" height="32" viewBox="0 0 32 32" xmlns="http://www.w3.org/2000/svg"><path d="M10.5 13A4.498 4.498 0 0 0 6 17.496V31h9V17.496A4.501 4.501 0 0 0 10.5 13zm0 2C9.12 15 8 16.129 8 17.51V21h5v-3.49c0-1.386-1.11-2.51-2.5-2.51zM8 24v1h5v-1H8zm0 2v1h5v-1H8zm13.5-16a4.5 4.5 0 0 0-4.5 4.505V31h9V14.505A4.506 4.506 0 0 0 21.5 10zm0 2c-1.38 0-2.5 1.129-2.5 2.51V18h5v-3.49c0-1.386-1.11-2.51-2.5-2.51zM19 21v1h5v-1h-5zm0 2v1h5v-1h-5zm9-4.756a7.5 7.5 0 0 0-13.283-6.948A7.5 7.5 0 0 0 4 21.245v-3.747a6.5 6.5 0 0 1 11.176-4.51A6.503 6.503 0 0 1 21.5 8c3.583 0 6.5 2.909 6.5 6.497v3.747zm0 3.184A9.5 9.5 0 1 0 14.002 8.666 9.475 9.475 0 0 0 10.5 8 9.5 9.5 0 0 0 4 24.428v1.319A10.481 10.481 0 0 1 0 17.5C0 11.701 4.701 7 10.5 7c1.11 0 2.178.172 3.182.49A10.474 10.474 0 0 1 21.5 4C27.299 4 32 8.701 32 14.5c0 3.345-1.564 6.324-4 8.247v-1.319z" fill="#929292" fill-rule="evenodd"/></svg>
